X:1
T:Leaning on the Everlasting Arms
M:4/4
L:1/4
K:C
 G G G3/4 F/4 E| c c c3/4 B/4 A| G c c/2B/2 c/2d/2| e e d2| G G G3/4 F/4 E|\
 c c c3/4 B/4 A| G c c/2B/2 c/2d/2| e d c2| g2 e2| c2 A2| G c3/4 c/4 c d|\
 e e d2| g2 e2| c2 A2| G c c3/4 B/4 c3/4 d/4| e d c2|
